X:490
T:Kildenny Willy. RH.490
T:Hexham Races,aka. RH.490
R:jig
S:Rev.R.Harrison’s MS,c1815,Cumbria
O:England
A:Temple Sowerby,Cumbria
Z:vmp.Simon Wilson. Review PJH, 2008.
M:6/8
L:1/8
Q:3/8=120
K:G
“_No key Sig in MS”B|GBd gdB|d>ed d2B|GBd gdB|A>BA A2B|\
GBd gdB|def gfe|ded cBA|GAG G2||!
b/a/|g2d edB|d>ed d2b/a/|g2d edB|A>BA A2b/a/|\
g2d edB|def gfe|ded cBA|G>AG G2|]

